X:1
T:French Suite II Menuet
T:BWV 813
T:J. S. Bach
%%score { 1 | 2 }
L:1/8
Q:1/4=184
M:3/4
K:Eb
V:1 treble nm="Harp"
V:2 bass 
V:1
"^Presto" Ge dc =Bc | a2 g2 f2 | ed fe dc | =B=A cB AG | ed ce AG | Ff ed cB | %6
 g2 e2 e/4d/4e/4d/4e/4d/4e/4d/4 | e6 | Ge dc =Bc | a2 g2 f2 | ed fe dc | =B=A cB AG | ed ce AG | %13
 Ff ed cB | g2 e2 e/4d/4e/4d/4e/4d/4e/4d/4 | e6 | Bg fe de | Ba g^e ^df | Bb ag fg | ed cd B2 | %20
 gf =eg _dc | Bg f=e dc | a2 gf g=e | f6 | ag fa dc | Bd fa gf | gf eg cB | Ac eg fe | fe df =B=A | %29
 G=B df ed | ec Fe dc | =B=A cB AG | %32
 e/4f/4g/4f/4g/4f/4g/4f/4 g/4f/4g/4f/4g/4f/4g/4f/4 g/4f/4g/4f/4g/4f/4g/4f/4 | %33
 g/4f/4g/4f/4g/4f/4g/4f/4 g/4f/4g/4f/4g/4f/4g/4f/4 g/4f/4g/4f/4g/4f/4g/4f/4 | %34
 g/4f/4g/4f/4a gf =ef | =ba gf ed | ed ce AG | Fe dc =Ba | g2 fe de | c6 | Bg fe de | Ba g^e ^df | %42
 Bb ag fg | ed cd B2 | gf =eg _dc | Bg f=e dc | a2 gf g=e | f6 | ag fa dc | Bd fa gf | gf eg cB | %51
 Ac eg fe | fe df =B=A | G=B df ed | ec Fe dc | =B=A cB AG | %56
 e/4f/4g/4f/4g/4f/4g/4f/4 g/4f/4g/4f/4g/4f/4g/4f/4 g/4f/4g/4f/4g/4f/4g/4f/4 | %57
 g/4f/4g/4f/4g/4f/4g/4f/4 g/4f/4g/4f/4g/4f/4g/4f/4 g/4f/4g/4f/4g/4f/4g/4f/4 | %58
 g/4f/4g/4f/4a gf =ef | =ba gf ed | ed ce AG | Fe dc =Ba | g2 fe de | c6 |] %64
V:2
 C,2 D,2 E,2 | F,F ED C=B, | C2 A,2 F,2 | G,2 =A,2 =B,2 | C2 z2 C,2 | D,2 z2 D2 | E2 A,2 B,2 | %7
 E,G, F,E, D,E, | C,2 D,2 E,2 | F,F ED C=B, | C2 A,2 F,2 | G,2 =A,2 =B,2 | C2 z2 C,2 | D,2 z2 D2 | %14
 E2 A,2 B,2 | E,G, F,E, D,E, | E,2 F,2 G,2 | D,2 z4 | E,2 C,2 ^G,,2 | B,,B, A,G, F,G, | =E,2 z4 | %21
 C,2 D,2 =E,2 | F,2 C2 C,2 | F,_D CB, A,C | F,2 A,2 F,2 | D,2 B,,2 D,2 | E,2 G,2 E,2 | %27
 C,2 A,,2 C,2 | D,2 F,2 D,2 | =B,,2 G,,2 B,,2 | C,2 A,2 F,2 | G,2 G,,2 z2 | D,A, G,F, =E,F, | %33
 C,A, G,F, =E,F, | =B,,2 C,2 D,2 | G,,2 =A,,2 =B,,2 | C,4 z2 | D,4 z2 | E,2 F,2 G,2 | C,6 | %40
 E,2 F,2 G,2 | D,2 z4 | E,2 C,2 ^G,,2 | B,,B, A,G, F,G, | =E,2 z4 | C,2 D,2 =E,2 | F,2 C2 C,2 | %47
 F,_D CB, A,C | F,2 A,2 F,2 | D,2 B,,2 D,2 | E,2 G,2 E,2 | C,2 A,,2 C,2 | D,2 F,2 D,2 | %53
 =B,,2 G,,2 B,,2 | C,2 A,2 F,2 | G,2 G,,2 z2 | D,A, G,F, =E,F, | C,A, G,F, =E,F, | =B,,2 C,2 D,2 | %59
 G,,2 =A,,2 =B,,2 | C,4 z2 | D,4 z2 | E,2 F,2 G,2 | C,6 |] %64

